X:880
T:Reel 880
M:4/4
K:Dmaj
L:1/8
AG|FDEC A,DD2|FABc d3e|fded Bdce| (3dcB AF E2:|FA|BcBA FAEC| (3DCD FA B2cd|Bc (3dcB Beec|BABc d2AG|FDED FDED|CB,A,D FABd| (3cBA EA  (3FGA Bc|dBAF D2|
